X:3
T:Dub #1 Festival Nologo
L:1/8
M:4/4
K:Am
AE AB c!pralltriller!B A^G | AE FD E2 E2 | AE AB c!pralltriller!B AB | dc !pralltriller!BA ^G2 A2 |
 AE AB c!pralltriller!B A^G | AE FD E2E2 | CB, A,^G, B,G, A,B, | CD EF E2(E2{d}) |
 z4 A^G AB | c4 BA ^GB | A4 e3f | e4 {d2c2}B2 {d2c2}B2 |
 z a ^ga ba ^ga | f2ed c2Bd | c2AE F2z2 | 

